/* XPM */
static const char * const bt_ProperMotionVectors_Off_xpm[] = {
"32 32 5 1",
" 	c None",
".	c #8a8a8a",
"+	c #1f1f1f",
"@	c #b0b0b0",
"#	c #d0d0d0",
"                                ",
"                         @      ",
"                        @@      ",
"                       @@@      ",
"                      @@@       ",
"                     @@@        ",
"                    @@@         ",
"                   @@@          ",
"                  @@@           ",
"                 @@@            ",
"                @@@             ",
"               @@@              ",
"              @@@               ",
"             @@@                ",
"            @@@                 ",
"      .     @@                  ",
"      .    @@                   ",
"   .  .  .@@                    ",
"    . . .@@                     ",
"     ...@@                      ",
" .....+#@@.....                 ",
"     ...@@                      ",
"    . . .@@                     ",
"   .  .  .@@                    ",
"      .    @@                   ",
"      .     @@                  ",
"             @@@                ",
"              @@@               ",
"               @@@              ",
"                @@@             ",
"                                ",
"                                "};
