/* XPM */
static const char * const bt_ProperMotionVectors_On_xpm[] = {
"32 32 5 1",
" 	c None",
".	c #d8d8d8",
"+	c #151515",
"@	c #f0f0f0",
"#	c #ffffff",
"                                ",
"                         @      ",
"                        @@      ",
"                       @@@      ",
"                      @@@       ",
"                     @@@        ",
"                    @@@         ",
"                   @@@          ",
"                  @@@           ",
"                 @@@            ",
"                @@@             ",
"               @@@              ",
"              @@@               ",
"             @@@                ",
"            @@@                 ",
"      .     @@                  ",
"      .    @@                   ",
"   .  .  .@@                    ",
"    . . .@@                     ",
"     ...@@                      ",
" .....+#@@.....                 ",
"     ...@@                      ",
"    . . .@@                     ",
"   .  .  .@@                    ",
"      .    @@                   ",
"      .     @@                  ",
"             @@@                ",
"              @@@               ",
"               @@@              ",
"                @@@             ",
"                                ",
"                                "};
